X:109
T:General Ward
R:jig 32
M:6/8
L:1/8
Q:1/4=180
C:Paul Burgess
S:Old Swan Band
R:jig 32
Z:P J Headford
K:G
|:D|GBd g2g|fga g2d|e2e efg|d2c B2B|
c2c cdc|Bdg dBG|E2E FED|G3 G2:|!
:G|A2D A2B|c2c Bcd|A2D A2B|cBA B2G|
c2c cdc|Bdg dBG|E2E FED|G3 G2:|]

